data/playwrite-za.svg

<svg width="101.04" height="27.048" viewBox="0 0 101.04 27.048" xmlns="http://www.w3.org/2000/svg"><path transform="translate(0 19.992) scale(.014 -.014)" d="m444 378q-19-1-27.5 9.5t-6.5 32.5q2 20 11.5 30t26.5 10q89 5 161.5 30t124.5 69 79.5 102.5 27.5 128.5q0 69-35 105.5t-97 36.5q-41 0-82.5-19.5t-79.5-56.5-70.5-88-57-113-39.5-133l-96-508q-2-14-13-21t-34-7q-22 0-33 7t-8 22l140 785q-21-28-46.5-52.5t-54.5-46.5-64-44q-18-11-31.5-5.5t-23.5 23.5-6.5 31 20.5 23q59 34 104 73t78 85 56 101q7 16 17.5 21.5t32.5 5.5 32.5-7 8.5-22l-25-154q39 59 85.5 100t98 62 105.5 21q63 0 110-26.5t73-75.5 26-117q0-89-36-163.5t-101-130.5-154.5-88-196.5-36z"/><path transform="translate(12.166 19.992) scale(.014 -.014)" d="m-124-17q-19 0-26 11.5t-5 26 12.5 26 28.5 11.5q29 0 63.5 17.5t72.5 49 77 74.5 78 94.5 74 108.5 65 117.5 52 120.5 34.5 118 12.5 110q0 15 13 22.5t30 7.5 30-7.5 13-22.5q0-52-14-112t-39.5-125-60-130.5-75.5-129-86-121.5-91-106.5-92-84.5-88.5-56-78.5-20zm312 1q-34 0-53 12t-27 32-7.5 46 5.5 54l121 693q18 103 56.5 150.5t102.5 47.5q36 0 62-18t39.5-51.5 13.5-81.5q0-19-13-28t-30-9-30 9-13 28q0 23-4 38.5t-12.5 23.5-21.5 8q-15 0-26.5-12t-21-40-18.5-77l-126-702q-3-15-2.5-25.5t5.5-16 15-5.5q11 0 20.5 5.5t18.5 15.5 18 23q6 8 15.5 9t22.5-7q14-9 16-19t-3-20q-10-19-28-38.5t-42-32-53-12.5z"/><path transform="translate(17.682 19.992) scale(.014 -.014)" d="m201-17q-46 0-80 23t-52.5 67-18.5 107q0 48 11.5 96.5t34.5 92 56.5 77.5 78.5 53.5 100 19.5q32 0 64-9t61-25l1 4q3 15 13 20.5t30 5.5q27 0 36.5-8t5.5-25l-67-375q-2-15-1.5-25.5t5.5-16 15-5.5q11 0 20 5.5t18.5 15.5 18.5 23q6 8 15.5 9.5t21.5-6.5q14-9 17-19.5t-3-20.5q-9-19-27-38t-42-32-53-13-47 9-27.5 25-12.5 36-2 41q1 6 1 12t0 13q-30-49-62.5-79t-65-44-63.5-14zm-62 205q0-38 9.5-66.5t28-43.5 46.5-15q34 0 68.5 26t68 75.5 62.5 119.5l21 129q-29 16-56 21.5t-53 5.5q-39 0-70-14.5t-54.5-40-39-58-23.5-68-8-71.5z"/><path transform="translate(26.39 19.992) scale(.014 -.014)" d="m437-5q18 12 36.5 23.5t35.5 22 32 19 27 13.5q16 8 26 2t14-19 0.5-26.5-16.5-20.5q-17-10-36.5-22t-40.5-25-41.5-27-40.5-27zm-232-514q-40 0-70 16t-46.5 44-16.5 64q0 39 13.5 75.5t40.5 72.5 67 72.5 92 74.5q24 16 48.5 32.5t49.5 33.5l29 164q-21-37-45.5-64.5t-51-45.5-54-27-55.5-9q-49 0-81 20.5t-43.5 62-0.5 103.5l55 316q4 17 14 23t30 6q27 0 36.5-8t5.5-25l-56-316q-6-34-2.5-57.5t19.5-35 47-11.5q30 0 60.5 18.5t59 52.5 54 81 45.5 103l26 169q4 17 14 23t31 6q26 0 36-8t6-25l-132-737q-13-67-33-117t-48-82.5-63.5-48.5-80.5-16zm11 77q23 0 43 12t36 35.5 28.5 59.5 21.5 83l19 117q-14-9-29-19t-29-20q-37-28-64-55t-45-53-27-51-9-50q0-18 6.5-31.5t18.5-20.5 30-7z"/><path transform="translate(35.35 19.992) scale(.014 -.014)" d="m204-19q-40 0-67 15.5t-41 42-16.5 62 3.5 75.5l53 310q3 15 12.5 22t32.5 7q27 0 36-8t5-25l-53-304q-5-32-4-58.5t14-43 44-16.5q25 0 48.5 14.5t44.5 40 38 57.5 29 68l45 246q3 15 12.5 22t30.5 7q29 0 37.5-8t4.5-24l-44-270q-4-31-6.5-58.5t1-49 17.5-33 42-11.5q30 0 57 16t49.5 43.5 39 63 25.5 74 9 76.5q0 23-2.5 44.5t-8 42.5-14.5 41q-7 18-3.5 30.5t15.5 19.5 28 7q17 0 27-10.5t17-31.5q9-18 15.5-39.5t10-45.5 3.5-50q0-46-12.5-96t-36-97-58-85-78.5-60.5-97-22.5q-41 0-69 14t-44 40.5-22 61.5q-20-36-46-62t-57-40-67-14z"/><path transform="translate(47.334 19.992) scale(.014 -.014)" d="m92-15q-19 0-31.5 7t-8.5 23l84 471q4 17 13.5 23t29.5 6q27 0 37-8t6-25l-19-111q22 37 46 64.5t48.5 46 49 28 46.5 9.5q26 0 47.5-9.5t32.5-22.5q10-9 10-20t-10-26-20.5-19.5-21.5 2.5q-14 7-26 11.5t-26 4.5q-25 0-53.5-18.5t-57.5-52-55.5-80-46.5-102.5l-28-176q-2-13-13-19.5t-33-6.5z"/><path transform="translate(53.69 19.992) scale(.014 -.014)" d="m159-16q-56 0-77 36.5t-6 105.5l59 360q4 17 14 23t30 6q27 0 36.5-8t5.5-25l-65-374q-5-25 0-36.5t20-11.5q11 0 20 5.5t17.5 15.5 18.5 23q6 8 15.5 9t21.5-7q14-8 16.5-18t-3.5-20q-13-25-32-44t-41.5-29.5-49.5-10.5zm54 685q-24 0-38 14t-14 42q0 29 16 49.5t49 20.5q24 0 38-14t14-43-16-49-49-20z"/><path transform="translate(57.89 19.992) scale(.014 -.014)" d="m195-16q-45 0-69 19.5t-30.5 55 3.5 82.5l46 279h-78q-12 0-17 9.5t-3 30.5q4 21 12 30.5t21 9.5h80l36 201q3 17 13 23t30 6q27 0 37-8t6-25l-35-197h126q13 0 18.5-9t1.5-31q-3-20-11-30t-21-10h-128l-53-294q-7-35 0.5-50.5t27.5-15.5q25 0 46.5 16t40.5 43q8 10 18 11t23-8q15-8 17.5-18.5t-2.5-20.5q-14-26-36.5-48.5t-52-36.5-67.5-14z"/><path transform="translate(63.322 19.992) scale(.014 -.014)" d="m265-18q-40 0-74 15t-60.5 41-45 61-28 74.5-9.5 81.5q0 37 8 74.5t25 71.5 42 60.5 58.5 42 75.5 15.5q41 0 69.5-16.5t43.5-45 15-64.5q0-45-21.5-91t-57-88.5-79.5-78.5q-51-44-110-78.5t-119-54-113-19.5q-14 0-21 11.5t-5 26 13 26 33 11.5q41 0 88.5 17t95 46 87.5 65q33 28 60 60.5t43.5 66 16.5 64.5q0 33-13.5 47.5t-39.5 14.5q-24 0-43.5-15.5t-34-42-22-58.5-7.5-65q0-39 10.5-74.5t30.5-63 46-43 57-15.5q27 0 50.5 10.5t46 29 43.5 40.5q13 14 26.5 12t25.5-13q13-12 15.5-24t-8.5-26q-31-39-66.5-63t-73-35-74.5-11z"/><path transform="translate(73.738 19.992) scale(.014 -.014)" d="m277-519q-45 0-79.5 19t-53.5 53.5-19 80.5q0 63 34.5 125.5t107.5 128.5 188.5 140.5 277.5 161.5q16 9 28 5t22-21q10-18 7-32t-19-23q-119-64-210-119t-156-104-106.5-92.5-61-84-19.5-79.5q0-34 17.5-54t48.5-20q29 0 54.5 16t47.5 45.5 39.5 67.5 30 82 19.5 91.5 7 93.5q0 47-4.5 86t-15 68.5-29.5 49.5-48.5 31-70.5 13q-14 1-22 12t-10 27 5 30 22 20q108 43 191 92t140 105 86 119 29 132q0 58-25 99t-71.5 62.5-111.5 21.5q-60 0-116.5-16t-109-45.5-102.5-69.5q-14-11-27-8t-26 19q-13 17-12 31.5t16 26.5q65 51 127.5 83.5t126.5 48 132 15.5q90 0 155.5-31t101-90.5 35.5-143.5q0-79-29.5-149.5t-86.5-132-139.5-112.5-189.5-92l1-2q45-5 77-28t52-61.5 30-91 10-117.5q0-49-7.5-99t-21-98-33-90.5-44-78.5-54.5-62-64-40.5-72-14.5z"/><path transform="translate(85.82 19.992) scale(.014 -.014)" d="m395-17q-65 0-119 25t-93.5 73-61 118.5-21.5 162.5q0 89 19 171.5t54 155.5 84.5 133 109.5 103 129.5 66.5 145.5 23.5q51 0 97.5-12.5t86-36.5 68.5-59l15 81q3 14 14.5 20.5t33.5 6.5 32.5-7 7.5-22l-145-806q-6-29-7-50.5t3-35 12.5-20.5 22.5-7q15 0 30 9.5t31 28.5 33 47q11 17 23 20.5t29-5.5q16-8 19.5-21t-5.5-29q-15-29-34.5-54t-42-43-46.5-27.5-48-9.5q-47 0-74.5 21.5t-36 64.5 2.5 105l15 116q-38-72-82.5-129t-93-97-101-60.5-107.5-20.5zm-203 380q0-75 16-130t45-92 67.5-55 84.5-18q49 0 97 22t94 64.5 88 104 80 141.5 71 176l41 228q-39 63-98.5 94.5t-143.5 31.5q-60 0-116.5-20.5t-106-59-89.5-91-69-115.5-45-134.5-16-146.5z"/></svg>

<?xml version="1.0" encoding="utf-8" ?>
<svg baseProfile="tiny" height="100%" version="1.2" width="100%" xmlns="http://www.w3.org/2000/svg" xmlns:ev="http://www.w3.org/2001/xml-events" xmlns:xlink="http://www.w3.org/1999/xlink"><defs /><g><path d="M444 378Q425 377 416.5 387.5Q408 398 410 420Q412 440 421.5 450.0Q431 460 448 460Q537 465 609.5 490.0Q682 515 734.0 559.0Q786 603 813.5 661.5Q841 720 841 790Q841 859 806.0 895.5Q771 932 709 932Q668 932 626.5 912.5Q585 893 547.0 856.0Q509 819 476.5 768.0Q444 717 419.5 655.0Q395 593 380 522L284 14Q282 0 271.0 -7.0Q260 -14 237 -14Q215 -14 204.0 -7.0Q193 0 196 15L336 800Q315 772 289.5 747.5Q264 723 235.0 701.0Q206 679 171 657Q153 646 139.5 651.5Q126 657 116 675Q106 693 109.5 706.0Q113 719 130 729Q189 763 234.0 802.0Q279 841 312.0 887.0Q345 933 368 988Q375 1004 385.5 1009.5Q396 1015 418 1015Q440 1015 450.5 1008.0Q461 1001 459 986L434 832Q473 891 519.5 932.0Q566 973 617.5 994.0Q669 1015 723 1015Q786 1015 833.0 988.5Q880 962 906.0 913.0Q932 864 932 796Q932 707 896.0 632.5Q860 558 795.0 502.0Q730 446 640.5 414.0Q551 382 444 378Z" transform="translate(0.0, 72) scale(0.072, -0.072)" /><path d="M-124 -17Q-143 -17 -150.0 -5.5Q-157 6 -155.0 20.5Q-153 35 -142.5 46.5Q-132 58 -114 58Q-85 58 -50.5 75.5Q-16 93 22.0 124.5Q60 156 99.0 199.0Q138 242 177.0 293.5Q216 345 251.0 402.0Q286 459 316.0 519.5Q346 580 368.0 640.0Q390 700 402.5 758.0Q415 816 415 868Q415 883 428.0 890.5Q441 898 458.0 898.0Q475 898 488.0 890.5Q501 883 501 868Q501 816 487.0 756.0Q473 696 447.5 631.0Q422 566 387.5 500.5Q353 435 312.0 371.5Q271 308 226.0 250.0Q181 192 135.0 143.5Q89 95 43.0 59.0Q-3 23 -45.5 3.0Q-88 -17 -124 -17ZM188 -16Q154 -16 135.0 -4.0Q116 8 108.0 28.0Q100 48 100.5 74.0Q101 100 106 128L227 821Q245 924 283.5 971.5Q322 1019 386 1019Q422 1019 448.0 1001.0Q474 983 487.5 949.5Q501 916 501 868Q501 849 488.0 840.0Q475 831 458.0 831.0Q441 831 428.0 840.0Q415 849 415 868Q415 891 411.0 906.5Q407 922 398.5 930.0Q390 938 377 938Q362 938 350.5 926.0Q339 914 329.5 886.0Q320 858 311 809L185 107Q182 92 182.5 81.5Q183 71 188.0 65.5Q193 60 203 60Q214 60 223.5 65.5Q233 71 242.0 81.0Q251 91 260 104Q266 112 275.5 113.0Q285 114 298 106Q312 97 314.0 87.0Q316 77 311 67Q301 48 283.0 28.5Q265 9 241.0 -3.5Q217 -16 188 -16Z" transform="translate(62.568, 72) scale(0.072, -0.072)" /><path d="M201 -17Q155 -17 121.0 6.0Q87 29 68.5 73.0Q50 117 50 180Q50 228 61.5 276.5Q73 325 96.0 368.5Q119 412 152.5 446.0Q186 480 231.0 499.5Q276 519 331 519Q363 519 395.0 510.0Q427 501 456 485L457 489Q460 504 470.0 509.5Q480 515 500 515Q527 515 536.5 507.0Q546 499 542 482L475 107Q473 92 473.5 81.5Q474 71 479.0 65.5Q484 60 494 60Q505 60 514.0 65.5Q523 71 532.5 81.0Q542 91 551 104Q557 112 566.5 113.5Q576 115 588 107Q602 98 605.0 87.5Q608 77 602 67Q593 48 575.0 29.0Q557 10 533.0 -3.0Q509 -16 480 -16Q451 -16 433.0 -7.0Q415 2 405.5 18.0Q396 34 393.0 54.0Q390 74 391 95Q392 101 392.0 107.0Q392 113 392 120Q362 71 329.5 41.0Q297 11 264.5 -3.0Q232 -17 201 -17ZM139 188Q139 150 148.5 121.5Q158 93 176.5 78.0Q195 63 223 63Q257 63 291.5 89.0Q326 115 359.5 164.5Q393 214 422 284L443 413Q414 429 387.0 434.5Q360 440 334 440Q295 440 264.0 425.5Q233 411 209.5 385.5Q186 360 170.5 327.5Q155 295 147.0 259.5Q139 224 139 188Z" transform="translate(90.93599999999999, 72) scale(0.072, -0.072)" /><path d="M437 -5Q455 7 473.5 18.5Q492 30 509.0 40.5Q526 51 541.0 59.5Q556 68 568 73Q584 81 594.0 75.0Q604 69 608.0 56.0Q612 43 608.5 29.5Q605 16 592 9Q575 -1 555.5 -13.0Q536 -25 515.0 -38.0Q494 -51 473.5 -65.0Q453 -79 433 -92ZM205 -519Q165 -519 135.0 -503.0Q105 -487 88.5 -459.0Q72 -431 72 -395Q72 -356 85.5 -319.5Q99 -283 126.0 -247.0Q153 -211 193.0 -174.5Q233 -138 285 -100Q309 -84 333.5 -67.5Q358 -51 383 -34L412 130Q391 93 366.5 65.5Q342 38 315.5 20.0Q289 2 261.5 -7.0Q234 -16 206 -16Q157 -16 125.0 4.5Q93 25 81.5 66.5Q70 108 81 170L136 486Q140 503 150.0 509.0Q160 515 180 515Q207 515 216.5 507.0Q226 499 222 482L166 166Q160 132 163.5 108.5Q167 85 183.0 73.5Q199 62 230 62Q260 62 290.5 80.5Q321 99 349.5 133.0Q378 167 403.5 214.0Q429 261 449 317L475 486Q479 503 489.0 509.0Q499 515 520 515Q546 515 556.0 507.0Q566 499 562 482L430 -255Q417 -322 397.0 -372.0Q377 -422 349.0 -454.5Q321 -487 285.5 -503.0Q250 -519 205 -519ZM216 -442Q239 -442 259.0 -430.0Q279 -418 295.0 -394.5Q311 -371 323.5 -335.0Q336 -299 345 -252L364 -135Q350 -144 335.0 -154.0Q320 -164 306 -174Q269 -202 242.0 -229.0Q215 -256 197.0 -282.0Q179 -308 170.0 -333.0Q161 -358 161 -383Q161 -401 167.5 -414.5Q174 -428 186.0 -435.0Q198 -442 216 -442Z" transform="translate(135.72, 72) scale(0.072, -0.072)" /><path d="M204 -19Q164 -19 137.0 -3.5Q110 12 96.0 38.5Q82 65 79.5 100.5Q77 136 83 176L136 486Q139 501 148.5 508.0Q158 515 181 515Q208 515 217.0 507.0Q226 499 222 482L169 178Q164 146 165.0 119.5Q166 93 179.0 76.5Q192 60 223 60Q248 60 271.5 74.5Q295 89 316.0 114.5Q337 140 354.0 172.0Q371 204 383 240L428 486Q431 501 440.5 508.0Q450 515 471 515Q500 515 508.5 507.0Q517 499 513 483L469 213Q465 182 462.5 154.5Q460 127 463.5 105.5Q467 84 481.0 72.5Q495 61 523 61Q553 61 580.0 77.0Q607 93 629.5 120.5Q652 148 668.5 183.5Q685 219 694.0 257.5Q703 296 703 334Q703 357 700.5 378.5Q698 400 692.5 421.0Q687 442 678 462Q671 480 674.5 492.5Q678 505 690.0 512.0Q702 519 718 519Q735 519 745.0 508.5Q755 498 762 477Q771 459 777.5 437.5Q784 416 787.5 392.0Q791 368 791 342Q791 296 778.5 246.0Q766 196 742.5 149.0Q719 102 684.5 64.0Q650 26 606.0 3.5Q562 -19 509 -19Q468 -19 440.0 -5.0Q412 9 396.0 35.5Q380 62 374 97Q354 61 328.0 35.0Q302 9 271.0 -5.0Q240 -19 204 -19Z" transform="translate(181.8, 72) scale(0.072, -0.072)" /><path d="M92 -15Q73 -15 60.5 -8.0Q48 -1 52 15L136 486Q140 503 149.5 509.0Q159 515 179 515Q206 515 216.0 507.0Q226 499 222 482L203 371Q225 408 249.0 435.5Q273 463 297.5 481.5Q322 500 346.5 509.5Q371 519 393 519Q419 519 440.5 509.5Q462 500 473 487Q483 478 483.0 467.0Q483 456 473 441Q463 426 452.5 421.5Q442 417 431 424Q417 431 405.0 435.5Q393 440 379 440Q354 440 325.5 421.5Q297 403 268.0 369.5Q239 336 212.5 289.5Q186 243 166 187L138 11Q136 -2 125.0 -8.5Q114 -15 92 -15Z" transform="translate(243.43200000000002, 72) scale(0.072, -0.072)" /><path d="M159 -16Q103 -16 82.0 20.5Q61 57 76 126L135 486Q139 503 149.0 509.0Q159 515 179 515Q206 515 215.5 507.0Q225 499 221 482L156 108Q151 83 156.0 71.5Q161 60 176 60Q187 60 196.0 65.5Q205 71 213.5 81.0Q222 91 232 104Q238 112 247.5 113.0Q257 114 269 106Q283 98 285.5 88.0Q288 78 282 68Q269 43 250.0 24.0Q231 5 208.5 -5.5Q186 -16 159 -16ZM213 669Q189 669 175.0 683.0Q161 697 161 725Q161 754 177.0 774.5Q193 795 226 795Q250 795 264.0 781.0Q278 767 278 738Q278 709 262.0 689.0Q246 669 213 669Z" transform="translate(276.12, 72) scale(0.072, -0.072)" /><path d="M195 -16Q150 -16 126.0 3.5Q102 23 95.5 58.5Q89 94 99 141L145 420H67Q55 420 50.0 429.5Q45 439 47 460Q51 481 59.0 490.5Q67 500 80 500H160L196 701Q199 718 209.0 724.0Q219 730 239 730Q266 730 276.0 722.0Q286 714 282 697L247 500H373Q386 500 391.5 491.0Q397 482 393 460Q390 440 382.0 430.0Q374 420 361 420H233L180 126Q173 91 180.5 75.5Q188 60 208 60Q233 60 254.5 76.0Q276 92 295 119Q303 129 313.0 130.0Q323 131 336 122Q351 114 353.5 103.5Q356 93 351 83Q337 57 314.5 34.5Q292 12 262.5 -2.0Q233 -16 195 -16Z" transform="translate(297.72, 72) scale(0.072, -0.072)" /><path d="M265 -18Q225 -18 191.0 -3.0Q157 12 130.5 38.0Q104 64 85.5 99.0Q67 134 57.5 173.5Q48 213 48 255Q48 292 56.0 329.5Q64 367 81.0 401.0Q98 435 123.0 461.5Q148 488 181.5 503.5Q215 519 257 519Q298 519 326.5 502.5Q355 486 370.0 457.5Q385 429 385 393Q385 348 363.5 302.0Q342 256 306.5 213.5Q271 171 227 135Q176 91 117.0 56.5Q58 22 -2.0 2.5Q-62 -17 -115 -17Q-129 -17 -136.0 -5.5Q-143 6 -141.0 20.5Q-139 35 -128.0 46.5Q-117 58 -95 58Q-54 58 -6.5 75.0Q41 92 88.5 121.0Q136 150 176 186Q209 214 236.0 246.5Q263 279 279.5 312.5Q296 346 296 377Q296 410 282.5 424.5Q269 439 243 439Q219 439 199.5 423.5Q180 408 165.5 381.5Q151 355 143.5 323.0Q136 291 136 258Q136 219 146.5 183.5Q157 148 177.0 120.5Q197 93 223.0 77.5Q249 62 280 62Q307 62 330.5 72.5Q354 83 376.5 101.5Q399 120 420 142Q433 156 446.5 154.0Q460 152 472 141Q485 129 487.5 117.0Q490 105 479 91Q448 52 412.5 28.0Q377 4 339.5 -7.0Q302 -18 265 -18Z" transform="translate(325.656, 72) scale(0.072, -0.072)" /><path d="M277 -519Q232 -519 197.5 -500.0Q163 -481 144.0 -446.5Q125 -412 125 -366Q125 -303 159.5 -240.5Q194 -178 267.0 -112.0Q340 -46 455.5 28.5Q571 103 733 190Q749 199 761.0 195.0Q773 191 783 174Q793 156 790.0 142.0Q787 128 771 119Q652 55 561.0 0.0Q470 -55 405.0 -104.0Q340 -153 298.5 -196.5Q257 -240 237.5 -280.5Q218 -321 218 -360Q218 -394 235.5 -414.0Q253 -434 284 -434Q313 -434 338.5 -418.0Q364 -402 386.0 -372.5Q408 -343 425.5 -305.0Q443 -267 455.5 -223.0Q468 -179 475.0 -131.5Q482 -84 482 -38Q482 9 477.5 48.0Q473 87 462.5 116.5Q452 146 433.0 166.0Q414 186 384.5 197.0Q355 208 314 210Q300 211 292.0 222.0Q284 233 282.0 249.0Q280 265 287.0 279.0Q294 293 309 299Q417 342 500.0 391.0Q583 440 640.0 496.0Q697 552 726.0 615.0Q755 678 755 747Q755 805 730.0 846.0Q705 887 658.5 908.5Q612 930 547 930Q487 930 430.5 914.0Q374 898 321.5 868.5Q269 839 219 799Q205 788 192.0 791.0Q179 794 166 810Q153 827 154.0 841.5Q155 856 170 868Q235 919 297.5 951.5Q360 984 424.0 999.5Q488 1015 556 1015Q646 1015 711.5 984.0Q777 953 812.5 893.5Q848 834 848 750Q848 671 818.5 600.5Q789 530 732.0 468.5Q675 407 592.5 356.0Q510 305 403 264L404 262Q449 257 481.0 234.0Q513 211 533.0 172.5Q553 134 563.0 81.5Q573 29 573 -36Q573 -85 565.5 -135.0Q558 -185 544.5 -233.0Q531 -281 511.5 -323.5Q492 -366 467.5 -402.0Q443 -438 413.0 -464.0Q383 -490 349.0 -504.5Q315 -519 277 -519Z" transform="translate(379.22400000000005, 72) scale(0.072, -0.072)" /><path d="M395 -17Q330 -17 276.0 8.0Q222 33 182.5 81.0Q143 129 121.5 199.5Q100 270 100 362Q100 451 119.0 533.5Q138 616 173.0 689.0Q208 762 257.5 822.0Q307 882 367.0 925.0Q427 968 496.5 991.5Q566 1015 642 1015Q693 1015 739.5 1002.5Q786 990 825.5 966.0Q865 942 894 907L909 988Q912 1002 923.5 1008.5Q935 1015 957 1015Q979 1015 989.5 1008.0Q1000 1001 997 986L852 180Q846 151 845.0 129.5Q844 108 848.0 94.5Q852 81 860.5 74.0Q869 67 883 67Q898 67 913.0 76.5Q928 86 944.0 105.0Q960 124 977 152Q988 169 1000.0 172.5Q1012 176 1029 167Q1045 159 1048.5 146.0Q1052 133 1043 117Q1028 88 1008.5 63.0Q989 38 966.5 20.0Q944 2 920.0 -7.5Q896 -17 872 -17Q825 -17 797.5 4.5Q770 26 761.5 69.0Q753 112 764 174L779 290Q741 218 696.5 161.0Q652 104 603.5 64.0Q555 24 502.5 3.5Q450 -17 395 -17ZM192 363Q192 288 208.0 233.0Q224 178 253.0 141.0Q282 104 320.5 86.0Q359 68 405 68Q454 68 502.0 90.0Q550 112 596.0 154.5Q642 197 684.0 258.5Q726 320 764.0 400.0Q802 480 835 576L876 804Q837 867 777.5 898.5Q718 930 634 930Q574 930 517.5 909.5Q461 889 411.5 850.5Q362 812 322.0 759.5Q282 707 253.0 644.0Q224 581 208.0 509.5Q192 438 192 363Z" transform="translate(441.36, 72) scale(0.072, -0.072)" /></g></svg>
